X: 69
T: Quant ce viendra
N: Derived from Bus3073-Quant_ce_viendra.krn
C: Antoine Busnoys
%%abc-version 2.0
%%abcx-abcm2ps-target-version 5.9.1 (29 Sep 2008)
%%abc-creator hum2abc beta
%%abcx-conversion-date 2019/02/16 20:26:07
%%abc-edited-by Jesse Rodin
%%abc-edited-by Chris Gage 02-12-2015
%%abcx-initial-encoding-date 2015/02/20/
%%humdrum-veritas 2431768328
%%humdrum-veritas-data 3475334960
%%linebreak <none>
%%barnumbers 0
L: 1/4
M: 3/1
Q: 1/2=120
%%staves [1 2 3 4]
V: 1 clef=treble
V: 2 clef=treble-8
V: 3 clef=treble-8
V: 4 clef=bass
K: Bb
[V:1] z4z4G4 | 
[V:2] z4z4d4 | 
[V:3] z4z4G4 | 
[V:4] z4z4G,,4 | 
[V:1] G6F2D2E2 | 
[V:2] =e4d4B2G2 | 
[V:3] G4B6c2 | 
[V:4] C,3B,,G,,4G,2E,2 | 
[V:1] F4G4A4 | 
[V:2] A4G4z2c2 | 
[V:3] d4B2c4A2 | 
[V:4] D,4E,4F,4 | 
[V:1] B4G2A3GF=E | 
[V:2] B2G4=E2F4 | 
[V:3] G4c6A2 | 
[V:4] z2G,2E,2C,2D,4 | 
[V:1] D8z4 | 
[V:2] G8z4 | 
[V:3] B8z4 | 
[V:4] G,,8z4 | 
[V:1] d4d4c4 | 
[V:2] g8c3d | 
[V:3] B4B4A4 | 
[V:4] G,,8F,4 | 
[V:1] B2A3GG4F2 | 
[V:2] =e2f2d8 | 
[V:3] G2F2B2G2A4 | 
[V:4] G,2D,2G,4D,4 | 
[V:1] B3AAGG4^F2 | 
[V:2] z2=e2f3/=e/d3cA2 | 
[V:3] G4c2G2A4 | 
[V:4] G,,4F,,2G,,2D,4 | 
[V:1] G8z4 | 
[V:2] B4e2dcc3B | 
[V:3] G4z2G2A2F2 | 
[V:4] z2G,,2C,2B,,2A,,2D,2- | 
[V:1] z2G2A2F2=E4 | 
[V:2] BAc4F2G3A | 
[V:3] =E4D4z2G2- | 
[V:4] D,2C,2F,2E,D,C,3B,, | 
[V:1] D4z2G4F2 | 
[V:2] B4z2d4c2 | 
[V:3] G2F2G2B2A4 | 
[V:4] G,,2D,2E,2G,2D,4 | 
[V:1] G2B2A4z2d2- | 
[V:2] B2G2A4G4 | 
[V:3] z2d4c2d2B2 | 
[V:4] G,,4z4G,,4 | 
[V:1] d2c2d2B2A4 | 
[V:2] z4d3=ef4 | 
[V:3] A4z2G2c4 | 
[V:4] F,,4B,,2A,,G,,F,,4 | 
[V:1] z2G2c4B2AG | 
[V:2] d2d4c2e2d2- | 
[V:3] B2AGF4G2B2- | 
[V:4] G,,2B,,2A,,4G,,4 | 
[V:1] F2c4B3AG2 | 
[V:2] d2c2A2B2G3F | 
[V:3] B2A4G2B2c2 | 
[V:4] z2F,4G,4E,2 | 
[V:1] ^F8z4 | 
[V:2] A8z4 | 
[V:3] d8z4 | 
[V:4] D,8z4 | 
[V:1] B8A4 | 
[V:2] G4d2=e2f4 | 
[V:3] d8c3B | 
[V:4] G,,4B,,3A,,F,,4 | 
[V:1] B6A2F4- | 
[V:2] d12- | 
[V:3] G8A4 | 
[V:4] G,,8D,4- | 
[V:1] F4G6F2 | 
[V:2] d8d4 | 
[V:3] A4B6A2 | 
[V:4] D,4G,,8 | 
[V:1] A4z2d4c2 | 
[V:2] c3AB3cd4 | 
[V:3] F4G4D4 | 
[V:4] z4G,,8- | 
[V:1] B4A2A4G2 | 
[V:2] G4F4G4 | 
[V:3] z2d4c2B4 | 
[V:4] G,,4z4G,,4 | 
[V:1] A12 | 
[V:2] z2D4F2=E2F2 | 
[V:3] A8z4 | 
[V:4] D,4D,4C,2A,,2 | 
[V:1] z4z4d4 | 
[V:2] G2B2A4G4 | 
[V:3] d4c2A2B2G2- | 
[V:4] B,,2G,,4F,,2G,,2B,,2 | 
[V:1] c2A2B2G4F2 | 
[V:2] c3dB4z4 | 
[V:3] G2F2G2B2A4 | 
[V:4] A,,4G,,4D,4 | 
[V:1] G2B2A4z2d2- | 
[V:2] B4F4d3=e | 
[V:3] z2d4c2B2G2 | 
[V:4] G,,4z4G,4 | 
[V:1] d2c2B2G2A4 | 
[V:2] f3d=ed2cf4 | 
[V:3] A4G4z2F2 | 
[V:4] D,2F,2G,2E,2D,4 | 
[V:1] G4z2F2B4 | 
[V:2] d8g4 | 
[V:3] B4A4d4 | 
[V:4] G,4D,4G,,4 | 
[V:1] A4d4c3B | 
[V:2] =e3fg4a2f2 | 
[V:3] c3BG4z2A2 | 
[V:4] z4G,,4F,4 | 
[V:1] G4B2A4G2- | 
[V:2] g2e2f4z2d2- | 
[V:3] B3cd4c2B2 | 
[V:4] E,4D,4F,2G,2- | 
[V:1] G2d4B2A4 | 
[V:2] d2B2d3=ef3g | 
[V:3] G4z2d4c2 | 
[V:4] G,A,B,3A,G,2F,3E, | 
[V:1] B2d3cB3AG2- | 
[V:2] f3dd4z2d2 | 
[V:3] d2B4G4B2 | 
[V:4] D,4B,,4G,,4 | 
[V:1] G2^F2G8 |]  
[V:2] d4e3dd4 |]  
[V:3] A4G8 |]  
[V:4] D,4G,,8 |]  



